Newaita-dark/apps/64/preferences-desktop-display.svg

<?xml version="1.0" encoding="UTF-8"?>
<svg xmlns="http://www.w3.org/2000/svg" xmlns:xlink="http://www.w3.org/1999/xlink" width="64pt" height="64pt" viewBox="0 0 64 64" version="1.1">
<defs>
<linearGradient id="linear0" gradientUnits="userSpaceOnUse" x1="254" y1="233.5" x2="254" y2="254.666672" gradientTransform="matrix(0.125012,0,0,0.125012,-0.00000763012,26.877566)">
<stop offset="0" style="stop-color:rgb(0%,0%,0%);stop-opacity:0.27451;"/>
<stop offset="1" style="stop-color:rgb(0%,0%,0%);stop-opacity:0;"/>
</linearGradient>
<radialGradient id="radial0" gradientUnits="userSpaceOnUse" cx="450.908936" cy="189.579361" fx="450.908936" fy="189.579361" r="21.166656" gradientTransform="matrix(0.000000348341,-0.156265,-0.281277,-0.000000203077,106.907382,127.190661)">
<stop offset="0" style="stop-color:rgb(0%,0%,0%);stop-opacity:0.313725;"/>
<stop offset="0.222222" style="stop-color:rgb(0%,0%,0%);stop-opacity:0.27451;"/>
<stop offset="1" style="stop-color:rgb(0%,0%,0%);stop-opacity:0;"/>
</radialGradient>
<radialGradient id="radial1" gradientUnits="userSpaceOnUse" cx="450.908936" cy="189.579361" fx="450.908936" fy="189.579361" r="21.166656" gradientTransform="matrix(-0.000000348341,0.156265,0.281277,0.000000203077,-43.401323,-15.054962)">
<stop offset="0" style="stop-color:rgb(0%,0%,0%);stop-opacity:0.313725;"/>
<stop offset="0.222222" style="stop-color:rgb(0%,0%,0%);stop-opacity:0.27451;"/>
<stop offset="1" style="stop-color:rgb(0%,0%,0%);stop-opacity:0;"/>
</radialGradient>
<radialGradient id="radial2" gradientUnits="userSpaceOnUse" cx="450.908936" cy="189.579361" fx="450.908936" fy="189.579361" r="21.166656" gradientTransform="matrix(-0.000000348341,-0.156265,0.281277,-0.000000203077,-43.401323,127.190661)">
<stop offset="0" style="stop-color:rgb(0%,0%,0%);stop-opacity:0.313725;"/>
<stop offset="0.222222" style="stop-color:rgb(0%,0%,0%);stop-opacity:0.27451;"/>
<stop offset="1" style="stop-color:rgb(0%,0%,0%);stop-opacity:0;"/>
</radialGradient>
<radialGradient id="radial3" gradientUnits="userSpaceOnUse" cx="450.908936" cy="189.579361" fx="450.908936" fy="189.579361" r="21.166656" gradientTransform="matrix(0.000000348341,0.156265,-0.281277,0.000000203077,106.907378,-15.054963)">
<stop offset="0" style="stop-color:rgb(0%,0%,0%);stop-opacity:0.313725;"/>
<stop offset="0.222222" style="stop-color:rgb(0%,0%,0%);stop-opacity:0.27451;"/>
<stop offset="1" style="stop-color:rgb(0%,0%,0%);stop-opacity:0;"/>
</radialGradient>
<linearGradient id="linear1" gradientUnits="userSpaceOnUse" x1="306.916656" y1="-25.791676" x2="305.954559" y2="-135.329163" gradientTransform="matrix(0.150699,0,0,0.434824,-11.708026,67.282696)">
<stop offset="0" style="stop-color:rgb(36.078431%,41.960784%,75.294118%);stop-opacity:1;"/>
<stop offset="1" style="stop-color:rgb(47.45098%,52.54902%,79.607843%);stop-opacity:1;"/>
</linearGradient>
<linearGradient id="linear2" gradientUnits="userSpaceOnUse" x1="1120" y1="1695.118164" x2="1120" y2="255.118118" gradientTransform="matrix(0.0330761,0,0,0.0330761,0,0.0273578)">
<stop offset="0" style="stop-color:rgb(69.019608%,74.509804%,77.254902%);stop-opacity:1;"/>
<stop offset="1" style="stop-color:rgb(81.176471%,84.705882%,86.27451%);stop-opacity:1;"/>
</linearGradient>
<linearGradient id="linear3" gradientUnits="userSpaceOnUse" x1="444.5" y1="185.875" x2="444.5" y2="148.833328" gradientTransform="matrix(0.5,0,0,0.571428,-105.833473,106.337929)">
<stop offset="0" style="stop-color:rgb(47.058824%,56.470588%,61.176471%);stop-opacity:1;"/>
<stop offset="1" style="stop-color:rgb(37.647059%,49.019608%,54.509804%);stop-opacity:1;"/>
</linearGradient>
<linearGradient id="linear4" gradientUnits="userSpaceOnUse" x1="444.5" y1="185.875" x2="444.5" y2="148.833328" gradientTransform="matrix(0.5,0,0,0.571428,-63.500114,106.337929)">
<stop offset="0" style="stop-color:rgb(47.058824%,56.470588%,61.176471%);stop-opacity:1;"/>
<stop offset="1" style="stop-color:rgb(37.647059%,49.019608%,54.509804%);stop-opacity:1;"/>
</linearGradient>
<linearGradient id="linear5" gradientUnits="userSpaceOnUse" x1="444.5" y1="185.875" x2="444.5" y2="148.833328" gradientTransform="matrix(0.5,0,0,0.571428,-21.166803,106.337929)">
<stop offset="0" style="stop-color:rgb(47.058824%,56.470588%,61.176471%);stop-opacity:1;"/>
<stop offset="1" style="stop-color:rgb(37.647059%,49.019608%,54.509804%);stop-opacity:1;"/>
</linearGradient>
<linearGradient id="linear6" gradientUnits="userSpaceOnUse" x1="444.5" y1="185.875" x2="444.5" y2="148.833328" gradientTransform="matrix(0.5,0,0,0.571428,169.333206,106.337929)">
<stop offset="0" style="stop-color:rgb(47.058824%,56.470588%,61.176471%);stop-opacity:1;"/>
<stop offset="1" style="stop-color:rgb(37.647059%,49.019608%,54.509804%);stop-opacity:1;"/>
</linearGradient>
</defs>
<g id="surface1">
<path style=" stroke:none;fill-rule:nonzero;fill:url(#linear0);" d="M 9.261719 56.066406 L 54.246094 56.066406 L 54.246094 58.714844 L 9.261719 58.714844 Z M 9.261719 56.066406 "/>
<path style=" stroke:none;fill-rule:nonzero;fill:url(#radial0);" d="M 54.246094 56.066406 L 59.535156 56.066406 L 59.535156 53.421875 L 54.246094 53.421875 Z M 54.246094 56.066406 "/>
<path style=" stroke:none;fill-rule:nonzero;fill:url(#radial1);" d="M 9.261719 56.066406 L 3.96875 56.066406 L 3.96875 58.714844 L 9.261719 58.714844 Z M 9.261719 56.066406 "/>
<path style=" stroke:none;fill-rule:nonzero;fill:url(#radial2);" d="M 9.261719 56.066406 L 3.96875 56.066406 L 3.96875 53.421875 L 9.261719 53.421875 Z M 9.261719 56.066406 "/>
<path style=" stroke:none;fill-rule:nonzero;fill:url(#radial3);" d="M 54.246094 56.066406 L 59.535156 56.066406 L 59.535156 58.714844 L 54.246094 58.714844 Z M 54.246094 56.066406 "/>
<path style=" stroke:none;fill-rule:nonzero;fill:url(#linear1);" d="M 6.613281 8.4375 L 56.890625 8.4375 C 58.351562 8.4375 59.535156 9.621094 59.535156 11.085938 L 59.535156 53.421875 C 59.535156 54.882812 58.351562 56.066406 56.890625 56.066406 L 6.613281 56.066406 C 5.152344 56.066406 3.96875 54.882812 3.96875 53.421875 L 3.96875 11.085938 C 3.96875 9.621094 5.152344 8.4375 6.613281 8.4375 Z M 6.613281 8.4375 "/>
<path style=" stroke:none;fill-rule:nonzero;fill:rgb(0%,0%,0%);fill-opacity:0.235294;" d="M 6.613281 56.09375 C 5.148438 56.09375 3.96875 54.914062 3.96875 53.449219 L 3.96875 52.761719 C 3.96875 54.226562 5.148438 55.40625 6.613281 55.40625 L 56.890625 55.40625 C 58.355469 55.40625 59.535156 54.226562 59.535156 52.761719 L 59.535156 53.449219 C 59.535156 54.914062 58.355469 56.09375 56.890625 56.09375 Z M 6.613281 56.09375 "/>
<path style=" stroke:none;fill-rule:nonzero;fill:url(#linear2);" d="M 13.230469 48.15625 C 11.765625 48.15625 10.585938 49.335938 10.585938 50.804688 L 10.585938 54.773438 C 10.585938 55.503906 11.175781 56.09375 11.90625 56.09375 L 51.597656 56.09375 C 52.332031 56.09375 52.921875 55.503906 52.921875 54.773438 L 52.921875 50.804688 C 52.921875 49.335938 51.742188 48.15625 50.277344 48.15625 Z M 13.230469 48.15625 "/>
<path style="fill-rule:nonzero;fill:url(#linear3);stroke-width:3;stroke-linecap:round;stroke-linejoin:miter;stroke:rgb(12.941177%,12.941177%,12.941177%);stroke-opacity:1;stroke-miterlimit:4;" d="M 116.426382 191.398691 C 122.269574 191.398691 126.987873 196.11699 126.987873 201.960182 C 126.987873 207.803374 122.269574 212.552921 116.426382 212.552921 C 110.58319 212.552921 105.833643 207.803374 105.833643 201.960182 C 105.833643 196.11699 110.58319 191.398691 116.426382 191.398691 Z M 116.426382 191.398691 " transform="matrix(0.125012,0,0,0.125012,0,26.877566)"/>
<path style="fill-rule:nonzero;fill:url(#linear4);stroke-width:3;stroke-linecap:round;stroke-linejoin:miter;stroke:rgb(12.941177%,12.941177%,12.941177%);stroke-opacity:1;stroke-miterlimit:4;" d="M 158.734842 191.398691 C 164.609281 191.398691 169.32758 196.11699 169.32758 201.960182 C 169.32758 207.803374 164.609281 212.552921 158.734842 212.552921 C 152.89165 212.552921 148.17335 207.803374 148.17335 201.960182 C 148.17335 196.11699 152.89165 191.398691 158.734842 191.398691 Z M 158.734842 191.398691 " transform="matrix(0.125012,0,0,0.125012,0,26.877566)"/>
<path style="fill-rule:nonzero;fill:url(#linear5);stroke-width:3;stroke-linecap:round;stroke-linejoin:miter;stroke:rgb(12.941177%,12.941177%,12.941177%);stroke-opacity:1;stroke-miterlimit:4;" d="M 201.074548 191.398691 C 206.91774 191.398691 211.667287 196.11699 211.667287 201.960182 C 211.667287 207.803374 206.91774 212.552921 201.074548 212.552921 C 195.231356 212.552921 190.513057 207.803374 190.513057 201.960182 C 190.513057 196.11699 195.231356 191.398691 201.074548 191.398691 Z M 201.074548 191.398691 " transform="matrix(0.125012,0,0,0.125012,0,26.877566)"/>
<path style="fill-rule:nonzero;fill:url(#linear6);stroke-width:3;stroke-linecap:round;stroke-linejoin:miter;stroke:rgb(12.941177%,12.941177%,12.941177%);stroke-opacity:1;stroke-miterlimit:4;" d="M 391.587605 191.398691 C 397.430797 191.398691 402.180344 196.11699 402.180344 201.960182 C 402.180344 207.803374 397.430797 212.552921 391.587605 212.552921 C 385.744413 212.552921 380.994867 207.803374 380.994867 201.960182 C 380.994867 196.11699 385.744413 191.398691 391.587605 191.398691 Z M 391.587605 191.398691 " transform="matrix(0.125012,0,0,0.125012,0,26.877566)"/>
<path style=" stroke:none;fill-rule:nonzero;fill:rgb(100%,100%,100%);fill-opacity:0.588235;" d="M 13.230469 48.15625 C 11.765625 48.15625 10.585938 49.335938 10.585938 50.804688 L 10.585938 51.4375 C 10.585938 49.972656 11.765625 48.792969 13.230469 48.792969 L 50.277344 48.792969 C 51.742188 48.792969 52.921875 49.972656 52.921875 51.4375 L 52.921875 50.804688 C 52.921875 49.335938 51.742188 48.15625 50.277344 48.15625 Z M 13.230469 48.15625 "/>
<path style=" stroke:none;fill-rule:nonzero;fill:rgb(0%,0%,0%);fill-opacity:0.235294;" d="M 10.585938 54.109375 L 10.585938 54.773438 C 10.585938 55.503906 11.175781 56.09375 11.90625 56.09375 L 51.597656 56.09375 C 52.332031 56.09375 52.921875 55.503906 52.921875 54.773438 L 52.921875 54.109375 C 52.921875 54.84375 52.332031 55.433594 51.597656 55.433594 L 11.90625 55.433594 C 11.175781 55.433594 10.585938 54.84375 10.585938 54.109375 Z M 10.585938 54.109375 "/>
<path style=" stroke:none;fill-rule:nonzero;fill:rgb(12.941177%,12.941177%,12.941177%);fill-opacity:1;" d="M 13.230469 47.96875 C 11.664062 47.96875 10.398438 49.238281 10.398438 50.804688 L 10.398438 54.773438 C 10.398438 55.605469 11.074219 56.28125 11.90625 56.28125 L 51.597656 56.28125 C 52.433594 56.28125 53.109375 55.605469 53.109375 54.773438 L 53.109375 50.804688 C 53.109375 49.238281 51.84375 47.96875 50.277344 47.96875 Z M 13.230469 48.34375 L 50.277344 48.34375 C 51.640625 48.34375 52.734375 49.4375 52.734375 50.804688 L 52.734375 54.773438 C 52.734375 55.40625 52.230469 55.90625 51.597656 55.90625 L 11.90625 55.90625 C 11.273438 55.90625 10.773438 55.40625 10.773438 54.773438 L 10.773438 50.804688 C 10.773438 49.4375 11.863281 48.34375 13.230469 48.34375 Z M 13.230469 48.34375 "/>
<path style=" stroke:none;fill-rule:nonzero;fill:rgb(100%,100%,100%);fill-opacity:0.392157;" d="M 6.613281 8.589844 C 5.148438 8.589844 3.96875 9.769531 3.96875 11.238281 L 3.96875 11.925781 C 3.96875 10.457031 5.148438 9.277344 6.613281 9.277344 L 56.890625 9.277344 C 58.355469 9.277344 59.535156 10.457031 59.535156 11.925781 L 59.535156 11.238281 C 59.535156 9.769531 58.355469 8.589844 56.890625 8.589844 Z M 6.613281 8.589844 "/>
<path style=" stroke:none;fill-rule:nonzero;fill:rgb(12.941177%,12.941177%,12.941177%);fill-opacity:1;" d="M 6.613281 8.25 C 5.046875 8.25 3.78125 9.519531 3.78125 11.085938 L 3.78125 53.421875 C 3.78125 54.988281 5.046875 56.253906 6.613281 56.253906 L 56.890625 56.253906 C 58.457031 56.253906 59.722656 54.988281 59.722656 53.421875 L 59.722656 11.085938 C 59.722656 9.519531 58.457031 8.25 56.890625 8.25 Z M 6.613281 8.625 L 56.890625 8.625 C 58.257812 8.625 59.347656 9.71875 59.347656 11.085938 L 59.347656 53.421875 C 59.347656 54.789062 58.257812 55.878906 56.890625 55.878906 L 6.613281 55.878906 C 5.25 55.878906 4.15625 54.789062 4.15625 53.421875 L 4.15625 11.085938 C 4.15625 9.71875 5.25 8.625 6.613281 8.625 Z M 6.613281 8.625 "/>
</g>
</svg>

<svg xmlns="http://www.w3.org/2000/svg" width="64pt" height="64pt" viewBox="0 0 64 64"><defs><linearGradient id="a" gradientUnits="userSpaceOnUse" x1="254" y1="233.5" x2="254" y2="254.667" gradientTransform="translate(0 26.878) scale(.12501)"><stop offset="0" stop-opacity=".275"/><stop offset="1" stop-opacity="0"/></linearGradient><radialGradient id="b" gradientUnits="userSpaceOnUse" cx="450.909" cy="189.579" fx="450.909" fy="189.579" r="21.167" gradientTransform="matrix(0 -.15626 -.28128 0 106.907 127.19)"><stop offset="0" stop-opacity=".314"/><stop offset=".222" stop-opacity=".275"/><stop offset="1" stop-opacity="0"/></radialGradient><radialGradient id="c" gradientUnits="userSpaceOnUse" cx="450.909" cy="189.579" fx="450.909" fy="189.579" r="21.167" gradientTransform="matrix(0 .15626 .28128 0 -43.401 -15.055)"><stop offset="0" stop-opacity=".314"/><stop offset=".222" stop-opacity=".275"/><stop offset="1" stop-opacity="0"/></radialGradient><radialGradient id="d" gradientUnits="userSpaceOnUse" cx="450.909" cy="189.579" fx="450.909" fy="189.579" r="21.167" gradientTransform="matrix(0 -.15626 .28128 0 -43.401 127.19)"><stop offset="0" stop-opacity=".314"/><stop offset=".222" stop-opacity=".275"/><stop offset="1" stop-opacity="0"/></radialGradient><radialGradient id="e" gradientUnits="userSpaceOnUse" cx="450.909" cy="189.579" fx="450.909" fy="189.579" r="21.167" gradientTransform="matrix(0 .15626 -.28128 0 106.907 -15.055)"><stop offset="0" stop-opacity=".314"/><stop offset=".222" stop-opacity=".275"/><stop offset="1" stop-opacity="0"/></radialGradient><linearGradient id="f" gradientUnits="userSpaceOnUse" x1="306.917" y1="-25.792" x2="305.955" y2="-135.329" gradientTransform="matrix(.1507 0 0 .43482 -11.708 67.283)"><stop offset="0" stop-color="#5c6bc0"/><stop offset="1" stop-color="#7986cb"/></linearGradient><linearGradient id="g" gradientUnits="userSpaceOnUse" x1="1120" y1="1695.118" x2="1120" y2="255.118" gradientTransform="matrix(.03308 0 0 .03308 0 .027)"><stop offset="0" stop-color="#b0bec5"/><stop offset="1" stop-color="#cfd8dc"/></linearGradient><linearGradient id="h" gradientUnits="userSpaceOnUse" x1="444.5" y1="185.875" x2="444.5" y2="148.833" gradientTransform="matrix(.5 0 0 .57143 -105.833 106.338)"><stop offset="0" stop-color="#78909c"/><stop offset="1" stop-color="#607d8b"/></linearGradient><linearGradient id="i" gradientUnits="userSpaceOnUse" x1="444.5" y1="185.875" x2="444.5" y2="148.833" gradientTransform="matrix(.5 0 0 .57143 -63.5 106.338)"><stop offset="0" stop-color="#78909c"/><stop offset="1" stop-color="#607d8b"/></linearGradient><linearGradient id="j" gradientUnits="userSpaceOnUse" x1="444.5" y1="185.875" x2="444.5" y2="148.833" gradientTransform="matrix(.5 0 0 .57143 -21.167 106.338)"><stop offset="0" stop-color="#78909c"/><stop offset="1" stop-color="#607d8b"/></linearGradient><linearGradient id="k" gradientUnits="userSpaceOnUse" x1="444.5" y1="185.875" x2="444.5" y2="148.833" gradientTransform="matrix(.5 0 0 .57143 169.333 106.338)"><stop offset="0" stop-color="#78909c"/><stop offset="1" stop-color="#607d8b"/></linearGradient></defs><path d="M9.262 56.066h44.984v2.649H9.262zm0 0" fill="url(#a)"/><path d="M54.246 56.066h5.29v-2.644h-5.29zm0 0" fill="url(#b)"/><path d="M9.262 56.066H3.969v2.649h5.293zm0 0" fill="url(#c)"/><path d="M9.262 56.066H3.969v-2.644h5.293zm0 0" fill="url(#d)"/><path d="M54.246 56.066h5.29v2.649h-5.29zm0 0" fill="url(#e)"/><path d="M6.613 8.438h50.278a2.645 2.645 0 0 1 2.644 2.648v42.336a2.644 2.644 0 0 1-2.644 2.644H6.613a2.644 2.644 0 0 1-2.644-2.644V11.086a2.645 2.645 0 0 1 2.644-2.649zm0 0" fill="url(#f)"/><path d="M6.613 56.094a2.639 2.639 0 0 1-2.644-2.645v-.687a2.639 2.639 0 0 0 2.644 2.644h50.278a2.639 2.639 0 0 0 2.644-2.644v.687a2.639 2.639 0 0 1-2.644 2.645zm0 0" fill-opacity=".235"/><path d="M13.23 48.156a2.64 2.64 0 0 0-2.644 2.649v3.968c0 .73.59 1.32 1.32 1.32h39.692a1.32 1.32 0 0 0 1.324-1.32v-3.968a2.64 2.64 0 0 0-2.645-2.649zm0 0" fill="url(#g)"/><path d="M116.426 191.399a10.548 10.548 0 0 1 10.562 10.561c0 5.843-4.718 10.593-10.562 10.593-5.843 0-10.592-4.75-10.592-10.593s4.75-10.561 10.592-10.561zm0 0" transform="translate(0 26.878) scale(.12501)" fill="url(#h)" stroke-width="3" stroke-linecap="round" stroke="#212121"/><path d="M158.735 191.399c5.874 0 10.593 4.718 10.593 10.561a10.582 10.582 0 0 1-10.593 10.593c-5.843 0-10.562-4.75-10.562-10.593a10.548 10.548 0 0 1 10.562-10.561zm0 0" transform="translate(0 26.878) scale(.12501)" fill="url(#i)" stroke-width="3" stroke-linecap="round" stroke="#212121"/><path d="M201.075 191.399c5.843 0 10.592 4.718 10.592 10.561s-4.75 10.593-10.592 10.593c-5.844 0-10.562-4.75-10.562-10.593a10.548 10.548 0 0 1 10.562-10.561zm0 0" transform="translate(0 26.878) scale(.12501)" fill="url(#j)" stroke-width="3" stroke-linecap="round" stroke="#212121"/><path d="M391.588 191.399c5.843 0 10.592 4.718 10.592 10.561s-4.75 10.593-10.592 10.593c-5.844 0-10.593-4.75-10.593-10.593s4.75-10.561 10.593-10.561zm0 0" transform="translate(0 26.878) scale(.12501)" fill="url(#k)" stroke-width="3" stroke-linecap="round" stroke="#212121"/><path d="M13.23 48.156a2.64 2.64 0 0 0-2.644 2.649v.633a2.639 2.639 0 0 1 2.644-2.645h37.047a2.639 2.639 0 0 1 2.645 2.645v-.633a2.64 2.64 0 0 0-2.645-2.649zm0 0" fill="#fff" fill-opacity=".588"/><path d="M10.586 54.11v.663c0 .73.59 1.32 1.32 1.32h39.692a1.32 1.32 0 0 0 1.324-1.32v-.664a1.32 1.32 0 0 1-1.324 1.325H11.906c-.73 0-1.32-.59-1.32-1.325zm0 0" fill-opacity=".235"/><path d="M13.23 47.969a2.832 2.832 0 0 0-2.832 2.836v3.968c0 .832.676 1.508 1.508 1.508h39.692a1.51 1.51 0 0 0 1.511-1.508v-3.968a2.832 2.832 0 0 0-2.832-2.836zm0 .375h37.047a2.45 2.45 0 0 1 2.457 2.46v3.97c0 .632-.504 1.132-1.136 1.132H11.906c-.633 0-1.133-.5-1.133-1.133v-3.968c0-1.367 1.09-2.461 2.457-2.461zm0 0" fill="#212121"/><path d="M6.613 8.59a2.64 2.64 0 0 0-2.644 2.648v.688a2.64 2.64 0 0 1 2.644-2.649h50.278a2.64 2.64 0 0 1 2.644 2.649v-.688a2.64 2.64 0 0 0-2.644-2.648zm0 0" fill="#fff" fill-opacity=".392"/><path d="M6.613 8.25a2.832 2.832 0 0 0-2.832 2.836v42.336a2.83 2.83 0 0 0 2.832 2.832h50.278a2.83 2.83 0 0 0 2.832-2.832V11.086A2.832 2.832 0 0 0 56.89 8.25zm0 .375h50.278a2.447 2.447 0 0 1 2.457 2.46v42.337a2.444 2.444 0 0 1-2.457 2.457H6.613a2.447 2.447 0 0 1-2.457-2.457V11.086a2.45 2.45 0 0 1 2.457-2.461zm0 0" fill="#212121"/></svg>
